X:2692
T:CARPENTER'S MORRIS
B:John of the Greeny Cheshire Way
N:© John Offord, Reproduced with permission
M:3/2
L:1/8
K:F
P:1
F4 E4    DEFD  | E2 G4 A2 ^C4 | F4    E4   DEFD  |E2 A,4 ^C2 D4 ||
P:2
F4 G4    AB=cA | B2 G4 c2 E4  | FEFG  ABcA B^c d2|e2 A4 ^c2 d4 ||
P:3
f4 e4    defe  | e2 g4 a2 ^c4 | f4    e4   defe  |e2 A4 ^c2 d4 ||
P:4
F4 FG A2 AB =c2| E2 G4 A2 B4  | A2 GF EFGE F2 ED |D4  ^C4   D4 |]


